X:78
T:Reel 78
M:4/4
K:Emin
L:1/8
dA|:BEEF D2DF|GEFG FAAc|BEEF GAB^c||dcdB AFDF:||2dBAF FEE2|e2fd e2dB|e2fe gfe^c|d2d^c dcde|fbba feed|e2fe dBB^c|dBAF DEFA|
